icons/svg/arrow-left-drop-circle-outline.svg

﻿<?xml version="1.0" encoding="utf-8"?>
<!DOCTYPE svg PUBLIC "-//W3C//DTD SVG 1.1//EN" "http://www.w3.org/Graphics/SVG/1.1/DTD/svg11.dtd">
<svg xmlns="http://www.w3.org/2000/svg" xmlns:xlink="http://www.w3.org/1999/xlink" version="1.1" baseProfile="full" width="24" height="24" viewBox="0 0 24.00 24.00" enable-background="new 0 0 24.00 24.00" xml:space="preserve">
	<path fill="#000000" fill-opacity="1" stroke-width="0.2" stroke-linejoin="miter" d="M 22,12C 22,6.47715 17.5228,2 12,2C 6.47715,2 2,6.47715 2,12C 2,17.5228 6.47715,22 12,22C 17.5228,22 22,17.5228 22,12 Z M 20,12C 20,16.4183 16.4183,20 12,20C 7.58172,20 4,16.4183 4,12C 4,7.58172 7.58172,4 12,4C 16.4183,4 20,7.58172 20,12 Z M 14,7L 8.99999,12L 14,17L 14,7 Z "/>
</svg>

<svg xmlns="http://www.w3.org/2000/svg" version="1.1" baseProfile="full" width="24" height="24" viewBox="0 0 24.00 24.00" xml:space="preserve"><path fill="#000" fill-opacity="1" stroke-width=".2" stroke-linejoin="miter" d="M22 12c0-5.523-4.477-10-10-10S2 6.477 2 12s4.477 10 10 10 10-4.477 10-10zm-2 0c0 4.418-3.582 8-8 8s-8-3.582-8-8 3.582-8 8-8 8 3.582 8 8zm-6-5l-5 5 5 5V7z"/></svg>
